src/assets/duotone/DiscountShape.svg

<svg width="24" height="24" viewBox="0 0 24 24"  xmlns="http://www.w3.org/2000/svg">
<path opacity="0.4" d="M3.98987 14.6599L2.46988 13.14C1.84988 12.52 1.84988 11.5 2.46988 10.88L3.98987 9.35996C4.24987 9.09996 4.45987 8.58995 4.45987 8.22995V6.07999C4.45987 5.19999 5.17988 4.47995 6.05988 4.47995H8.20987C8.56987 4.47995 9.07988 4.26998 9.33988 4.00998L10.8599 2.48996C11.4799 1.86996 12.4999 1.86996 13.1199 2.48996L14.6399 4.00998C14.8999 4.26998 15.4099 4.47995 15.7699 4.47995H17.9199C18.7999 4.47995 19.5199 5.19999 19.5199 6.07999V8.22995C19.5199 8.58995 19.7299 9.09996 19.9899 9.35996L21.5099 10.88C22.1299 11.5 22.1299 12.52 21.5099 13.14L19.9899 14.6599C19.7299 14.9199 19.5199 15.43 19.5199 15.79V17.94C19.5199 18.82 18.7999 19.54 17.9199 19.54H15.7699C15.4099 19.54 14.8999 19.75 14.6399 20.01L13.1199 21.53C12.4999 22.15 11.4799 22.15 10.8599 21.53L9.33988 20.01C9.07988 19.75 8.56987 19.54 8.20987 19.54H6.05988C5.17988 19.54 4.45987 18.82 4.45987 17.94V15.79C4.45987 15.42 4.24987 14.9099 3.98987 14.6599Z" />
<path d="M15.0002 16C14.4402 16 13.9902 15.55 13.9902 15C13.9902 14.45 14.4402 14 14.9902 14C15.5402 14 15.9902 14.45 15.9902 15C15.9902 15.55 15.5502 16 15.0002 16Z" />
<path d="M9.01001 10C8.45001 10 8 9.55 8 9C8 8.45 8.45 8 9 8C9.55 8 10 8.45 10 9C10 9.55 9.56001 10 9.01001 10Z" />
<path d="M8.99994 15.75C8.80994 15.75 8.61994 15.68 8.46994 15.53C8.17994 15.24 8.17994 14.7599 8.46994 14.4699L14.4699 8.46994C14.7599 8.17994 15.2399 8.17994 15.5299 8.46994C15.8199 8.75994 15.8199 9.24 15.5299 9.53L9.52994 15.53C9.37994 15.68 9.18994 15.75 8.99994 15.75Z" />
</svg>

<?xml version="1.0" encoding="UTF-8"?>
<svg width="24" height="24" viewBox="0 0 24 24" xmlns="http://www.w3.org/2000/svg">
 <path d="m3.9899 14.66-1.52-1.5199c-0.62-0.62-0.62-1.64 0-2.26l1.52-1.52c0.26-0.26 0.47-0.77001 0.47-1.13v-2.15c0-0.88 0.72001-1.6 1.6-1.6h2.15c0.36 0 0.87001-0.20997 1.13-0.46997l1.52-1.52c0.62-0.62 1.64-0.62 2.26 0l1.52 1.52c0.26 0.26 0.77 0.46997 1.13 0.46997h2.15c0.88 0 1.6 0.72004 1.6 1.6v2.15c0 0.36 0.21 0.87001 0.47 1.13l1.52 1.52c0.62 0.62 0.62 1.64 0 2.26l-1.52 1.5199c-0.26 0.26-0.47 0.7701-0.47 1.1301v2.15c0 0.88-0.72 1.6-1.6 1.6h-2.15c-0.36 0-0.87 0.21-1.13 0.47l-1.52 1.52c-0.62 0.62-1.64 0.62-2.26 0l-1.52-1.52c-0.26-0.26-0.77001-0.47-1.13-0.47h-2.15c-0.88 0-1.6-0.72-1.6-1.6v-2.15c0-0.37-0.21-0.8801-0.47-1.1301z" opacity=".4"/>
 <path d="m15 16c-0.56 0-1.01-0.45-1.01-1s0.45-1 1-1 1 0.45 1 1-0.44 1-0.99 1z"/>
 <path d="m9.01 10c-0.56 0-1.01-0.45-1.01-1s0.45-1 1-1 1 0.45 1 1-0.43999 1-0.98999 1z"/>
 <path d="m8.9999 15.75c-0.19 0-0.38-0.07-0.53-0.22-0.29-0.29-0.29-0.7701 0-1.0601l6-6c0.29-0.29 0.77-0.29 1.06 0s0.29 0.77006 0 1.0601l-6 6c-0.15 0.15-0.34 0.22-0.53 0.22z"/>
</svg>
